X: 12
T:Bourre (MC 74)
S:Morceaux Choisis 74
M:3/8
L:1/8
K:C
cfe|d2e/f/|g2f/e/|d/e/c2|\
cfe|d2e/f/|g2f/e/|d3:|
|:fde|c>de|c2B|cd2|\
fde|cd/e/f/d/|ed2|c3:|
